svgs/letterboxd.svg

<svg viewBox="0 0 192 192" xml:space="preserve" style="fill-rule:evenodd;clip-rule:evenodd;stroke-linejoin:round;stroke-miterlimit:2" xmlns="http://www.w3.org/2000/svg"><path d="M1179.28 284.01c-6.02-5.845-14.23-9.447-23.28-9.447-9.04 0-17.25 3.597-23.27 9.438-6.03-5.841-14.23-9.438-23.28-9.438-18.45 0-33.43 14.983-33.43 33.437 0 18.454 14.98 33.437 33.43 33.437 9.05 0 17.25-3.597 23.28-9.438 6.02 5.841 14.23 9.438 23.27 9.438 9.05 0 17.26-3.602 23.28-9.447 6.02 5.845 14.24 9.447 23.28 9.447 18.46 0 33.44-14.983 33.44-33.437 0-18.454-14.98-33.437-33.44-33.437-9.04 0-17.26 3.602-23.28 9.447Zm-7.07 9.965c-3.94-4.539-9.74-7.412-16.21-7.412-6.46 0-12.26 2.867-16.2 7.397a33.152 33.152 0 0 1 3.09 14.04c0 5.012-1.1 9.768-3.09 14.04 3.94 4.53 9.74 7.397 16.2 7.397 6.47 0 12.27-2.873 16.21-7.412a33.228 33.228 0 0 1-3.08-14.025c0-5.007 1.1-9.758 3.08-14.025Zm-46.56-.015c-3.93-4.53-9.73-7.397-16.2-7.397-11.83 0-21.43 9.606-21.43 21.437 0 11.831 9.6 21.437 21.43 21.437 6.47 0 12.27-2.867 16.2-7.397a33.303 33.303 0 0 1-3.09-14.04c0-5.012 1.11-9.768 3.09-14.04Zm60.71 28.065c3.93 4.539 9.73 7.412 16.2 7.412 11.83 0 21.44-9.606 21.44-21.437 0-11.831-9.61-21.437-21.44-21.437-6.47 0-12.27 2.873-16.2 7.412a33.373 33.373 0 0 1 3.07 14.025c0 5.007-1.1 9.758-3.07 14.025Z" style="fill-rule:evenodd;clip-rule:evenodd;stroke-linejoin:round;stroke-miterlimit:2" transform="translate(-1060 -212)"/></svg>

<?xml version="1.0" encoding="UTF-8" standalone="no"?>
<svg
   width="100%"
   height="100%"
   viewBox="0 0 192 192"
   version="1.1"
   xml:space="preserve"
   style="fill-rule:evenodd;clip-rule:evenodd;stroke-linejoin:round;stroke-miterlimit:2;"
   id="svg1173"
   sodipodi:docname="letterboxd.svg"
   inkscape:version="1.2.1 (9c6d41e410, 2022-07-14)"
   xmlns:inkscape="http://www.inkscape.org/namespaces/inkscape"
   xmlns:sodipodi="http://sodipodi.sourceforge.net/DTD/sodipodi-0.dtd"
   xmlns="http://www.w3.org/2000/svg"
   xmlns:svg="http://www.w3.org/2000/svg"><defs
   id="defs1177" /><sodipodi:namedview
   id="namedview1175"
   pagecolor="#ffffff"
   bordercolor="#000000"
   borderopacity="0.25"
   inkscape:showpageshadow="2"
   inkscape:pageopacity="0.0"
   inkscape:pagecheckerboard="0"
   inkscape:deskcolor="#d1d1d1"
   showgrid="false"
   inkscape:zoom="5.3489583"
   inkscape:cx="95.906524"
   inkscape:cy="95.906524"
   inkscape:window-width="1274"
   inkscape:window-height="1303"
   inkscape:window-x="1282"
   inkscape:window-y="36"
   inkscape:window-maximized="0"
   inkscape:current-layer="svg1173" />
    <path
   d="M1179.28,284.01C1173.26,278.165 1165.05,274.563 1156,274.563C1146.96,274.563 1138.75,278.16 1132.73,284.001C1126.7,278.16 1118.5,274.563 1109.45,274.563C1091,274.563 1076.02,289.546 1076.02,308C1076.02,326.454 1091,341.437 1109.45,341.437C1118.5,341.437 1126.7,337.84 1132.73,331.999C1138.75,337.84 1146.96,341.437 1156,341.437C1165.05,341.437 1173.26,337.835 1179.28,331.99C1185.3,337.835 1193.52,341.437 1202.56,341.437C1221.02,341.437 1236,326.454 1236,308C1236,289.546 1221.02,274.563 1202.56,274.563C1193.52,274.563 1185.3,278.165 1179.28,284.01ZM1172.21,293.975C1168.27,289.436 1162.47,286.563 1156,286.563C1149.54,286.563 1143.74,289.43 1139.8,293.96C1141.79,298.232 1142.89,302.988 1142.89,308C1142.89,313.012 1141.79,317.768 1139.8,322.04C1143.74,326.57 1149.54,329.437 1156,329.437C1162.47,329.437 1168.27,326.564 1172.21,322.025C1170.23,317.758 1169.13,313.007 1169.13,308C1169.13,302.993 1170.23,298.242 1172.21,293.975ZM1125.65,293.96C1121.72,289.43 1115.92,286.563 1109.45,286.563C1097.62,286.563 1088.02,296.169 1088.02,308C1088.02,319.831 1097.62,329.437 1109.45,329.437C1115.92,329.437 1121.72,326.57 1125.65,322.04C1123.67,317.768 1122.56,313.012 1122.56,308C1122.56,302.988 1123.67,298.232 1125.65,293.96ZM1186.36,322.025C1190.29,326.564 1196.09,329.437 1202.56,329.437C1214.39,329.437 1224,319.831 1224,308C1224,296.169 1214.39,286.563 1202.56,286.563C1196.09,286.563 1190.29,289.436 1186.36,293.975C1188.33,298.242 1189.43,302.993 1189.43,308C1189.43,313.007 1188.33,317.758 1186.36,322.025Z"
   id="path1167"
   style="fill-rule:evenodd;clip-rule:evenodd;stroke-linejoin:round;stroke-miterlimit:2"
   transform="translate(-1060,-212)"
   inkscape:label="letterboxd" />
</svg>
